!!!OTL: Teutscher Wein und teutsche Sitte.
!!!OTL-incipit:BRUEDER DAS IST DEUTSCHER WEIN
!!!COM: F. Silcher
!!!ARE: Europa, Mitteleuropa, Deutschland
!!!SCT: F0416
!!!TXL: @@DE
!!!YEM: Copyright 1995, estate of Helmut Schaffrath.
**kern	**text
*ICvox	*
*clefG2	*
*M4/4	*
*met(c)	*
*k[]	*
*C:	*
=1	=1
!LO:TX:a:t=Einer.	!
!LO:TX:a:t=Raſch.	!
!LO:TX:a:t=P:only the highest voice encoded:problem	!
{4.cc	1._Brüder,
8g	.
4a	das
4e	iſt
=2	=2
2f	teut-
2g	-ſcher
=3	=3
2.c	Wein!
4r}	.
=4	=4
!LO:TX:a:t=Ʒwei.	!
{4cc	da-
4dd	-rum
4ff	iſt
4ee	er
=5	=5
4dd	klar
4cc	und
4b/	ſtil-
4g}	-le,
=6	=6
{4ee	darum
4dd	.
4ff	hat
4ee	er
=7	=7
8ee/L	Kraft
8ddJ	.
4cc/	und
4b/	Fül-
4g}	-le,
=8	=8
{4.cc/	darum
8b/	.
4a	ſchenkt
4a	ihn
=9	=9
4.dd/	fröh-
8cc/	-lich
2b/}	ein!
=10	=10
!LO:TX:a:t=Alle.	!
{4.ff	Brü-
8ff	-der,
4ee	das
4ee	iſt
=11	=11
2dd/	teut-
2dd/	-ſcher
=12	=12
2cc;	Wein!
2r}	.
==	==
!!!AGN: Vaterlands -, Heimat - Lied, nationalistisch, Trink - Lied
!!!ONB: ESAC (Essen Associative Code) Database: FINK
!!!AMT: simple quadruple
!!!AIN: vox
!!!EED: Helmut Schaffrath
!!!EEV: 1.0
!!Text: A. Schreiber
!!!GTL: Vaterlands- und Heimathslieder
!!!source: Musikalischer Hausschatz der Deutschen. Eine Sammlung von über 1000 Liedern und Gesängen mit Singstimmen und Klavierbegleitung. Leipzig, Litterarisches Verlags-Haus.
!!!page: 255
!!!URL-scan: https://www.digitale-sammlungen.de/en/view/bsb11144622?page=244,245
!!!ENC: Anna Maria Matuszewska
!!!EEV: 2024/07/31
*-	*-
